X: 257
T:Fun Tashlikh
S:printed MS from Glenn Dickson
M:4/4
L:1/8
K:Dm
|:"Dm"D2D2 _AGF2 | "A7"EFGE "Dm"F4 | EF^GA =Bcdc | dc=BA ^GFEC |
| "Dm"D2D2 _AGF2 | "A7"EFGE "Dm"F4 | "Cm"FCD_E FDEC | "Dm"D8 :|
|: "F"f2f2 _edcB | AccA BAGF | AccA BAGF | "C7"=Bd c6 |
| "F"eff2 _edcB | AccA BAGF | "C7"GABc AFGE | "F"F8 :|
